resources/svg/timer-line.svg

<svg fill="currentColor" viewBox="0 0 24 24" xmlns="http://www.w3.org/2000/svg"><path d="M17.6177 5.9681L19.0711 4.51472L20.4853 5.92893L19.0319 7.38231C20.2635 8.92199 21 10.875 21 13C21 17.9706 16.9706 22 12 22C7.02944 22 3 17.9706 3 13C3 8.02944 7.02944 4 12 4C14.125 4 16.078 4.73647 17.6177 5.9681ZM12 20C15.866 20 19 16.866 19 13C19 9.13401 15.866 6 12 6C8.13401 6 5 9.13401 5 13C5 16.866 8.13401 20 12 20ZM11 8H13V14H11V8ZM8 1H16V3H8V1Z"/></svg>

<svg xmlns="http://www.w3.org/2000/svg" viewBox="0 0 24 24" fill="currentColor">
    <g>
        <path fill="none" d="M0 0h24v24H0z"/>
        <path d="M17.618 5.968l1.453-1.453 1.414 1.414-1.453 1.453a9 9 0 1 1-1.414-1.414zM12 20a7 7 0 1 0 0-14 7 7 0 0 0 0 14zM11 8h2v6h-2V8zM8 1h8v2H8V1z"/>
    </g>
</svg>
